src/assets/social_sharing_icons/facebook_icon.svg

<svg fill="none" height="41" viewBox="0 0 40 41" width="40" xmlns="http://www.w3.org/2000/svg" xmlns:xlink="http://www.w3.org/1999/xlink"><clipPath id="a"><path d="m0 .43457h40v40h-40z"/></clipPath><g clip-path="url(#a)"><path d="m20 40.4346c11.0457 0 20-8.9543 20-20 0-11.04572-8.9543-20.00003-20-20.00003-11.04569 0-20 8.95431-20 20.00003 0 11.0457 8.95431 20 20 20z" fill="#3b5998"/><path d="m24.5973 20.4135h-2.9661v10.8664h-4.4939v-10.8664h-2.1373v-3.8189h2.1373v-2.4712c0-1.7673.8395-4.53453 4.5339-4.53453l3.3288.01392v3.70691h-2.4153c-.3961 0-.9532.1979-.9532 1.0409v2.2476h3.3584z" fill="#fff"/></g></svg>

<svg width="40" height="41" viewBox="0 0 40 41" fill="none" xmlns="http://www.w3.org/2000/svg">
<g clip-path="url(#clip0_3790_4036)">
<path d="M20 40.4346C31.0457 40.4346 40 31.4803 40 20.4346C40 9.38888 31.0457 0.43457 20 0.43457C8.95431 0.43457 0 9.38888 0 20.4346C0 31.4803 8.95431 40.4346 20 40.4346Z" fill="#3B5998"/>
<path d="M24.5973 20.4135H21.6312V31.2799H17.1373V20.4135H15V16.5946H17.1373V14.1234C17.1373 12.3561 17.9768 9.58887 21.6712 9.58887L25 9.60279V13.3097H22.5847C22.1886 13.3097 21.6315 13.5076 21.6315 14.3506V16.5982H24.9899L24.5973 20.4135Z" fill="white"/>
</g>
<defs>
<clipPath id="clip0_3790_4036">
<rect width="40" height="40" fill="white" transform="translate(0 0.43457)"/>
</clipPath>
</defs>
</svg>
